app/images/icons/advice-info-2.svg

<svg xmlns="http://www.w3.org/2000/svg" fill="none" viewBox="0 0 40 40"><defs/><path fill="#F3F1EF" d="M38.8281 11.7969h-3.5937V1.17188C35.2344.524597 34.7098 0 34.0625 0h-7.0313c-.6472 0-1.1718.524597-1.1718 1.17188V11.7969h-4.6875V3.51562C21.1719 1.57715 19.5947 0 17.6562 0c-1.9384 0-3.5156 1.57715-3.5156 3.51562v8.28128H9.375c0-2.58486-2.10266-4.68752-4.6875-4.68752S0 9.21204 0 11.7969v23.5156C0 37.8973 2.10266 40 4.6875 40h34.1406C39.4754 40 40 39.4754 40 38.8281V12.9688c0-.6473-.5246-1.1719-1.1719-1.1719zm-5.9375-9.45315V32.9688h-4.6875V30.625h1.1719c.6473 0 1.1719-.5246 1.1719-1.1719s-.5246-1.1719-1.1719-1.1719h-1.1719v-2.3437h1.1719c.6473 0 1.1719-.5246 1.1719-1.1719s-.5246-1.1718-1.1719-1.1718h-1.1719v-2.4219h1.1719c.6473 0 1.1719-.5246 1.1719-1.1719s-.5246-1.1719-1.1719-1.1719h-1.1719v-2.3437h1.1719c.6473 0 1.1719-.5246 1.1719-1.1719s-.5246-1.1719-1.1719-1.1719h-1.1719v-1.1627c0-.003.0006-.0061.0006-.0091 0-.0031-.0006-.0062-.0006-.0092v-1.1627h1.1719c.6473 0 1.1719-.5246 1.1719-1.1719 0-.64728-.5246-1.17188-1.1719-1.17188h-1.1719V7.03125h1.1719c.6473 0 1.1719-.5246 1.1719-1.17187 0-.64728-.5246-1.17188-1.1719-1.17188h-1.1719V2.34375h4.6875zM18.8281 25.9375h-2.3437V7.03125h2.3437V25.9375zm-.4541 2.3437l-.7178 2.1537-.7177-2.1537h1.4355zm-.7178-25.93745c.6461 0 1.1719.52582 1.1719 1.17187V4.6875h-2.3437V3.51562c0-.64605.5258-1.17187 1.1718-1.17187zM4.6875 9.45312c1.29242 0 2.34375 1.05138 2.34375 2.34378v19.4586c-.69-.4001-1.49017-.6305-2.34375-.6305s-1.65375.2304-2.34375.6305V11.7969c0-1.2924 1.05133-2.34378 2.34375-2.34378zM37.6562 37.6562H4.6875c-1.29242 0-2.34375-1.0513-2.34375-2.3437 0-1.2924 1.05133-2.3437 2.34375-2.3437s2.34375 1.0513 2.34375 2.3437c0 .6473.5246 1.1719 1.17187 1.1719.64728 0 1.17188-.5246 1.17188-1.1719V14.1406h4.7656v12.9688c0 .1242.0241.2624.0601.3705l2.3438 7.0312c.1596.4785.6073.8014 1.1117.8014.5045 0 .9522-.3229 1.1118-.8014l2.3438-7.0312c.0009-.0028.0015-.0055.0024-.0086.0351-.1083.0577-.2402.0577-.3619V14.1406h4.6875v20c0 .6473.5246 1.1719 1.1718 1.1719h7.0313c.6473 0 1.1719-.5246 1.1719-1.1719v-20h2.4218v23.5156z"/></svg>

<svg width="40" height="40" viewBox="0 0 40 40" fill="none" xmlns="http://www.w3.org/2000/svg">
<path d="M38.8281 11.7969H35.2344V1.17188C35.2344 0.524597 34.7098 0 34.0625 0H27.0312C26.384 0 25.8594 0.524597 25.8594 1.17188V11.7969H21.1719C21.1719 10.0339 21.1719 5.24506 21.1719 3.51562C21.1719 1.57715 19.5947 0 17.6562 0C15.7178 0 14.1406 1.57715 14.1406 3.51562V11.7969H9.375C9.375 9.21204 7.27234 7.10938 4.6875 7.10938C2.10266 7.10938 0 9.21204 0 11.7969V35.3125C0 37.8973 2.10266 40 4.6875 40H38.8281C39.4754 40 40 39.4754 40 38.8281V12.9688C40 12.3215 39.4754 11.7969 38.8281 11.7969ZM32.8906 2.34375V32.9688H28.2031V30.625H29.375C30.0223 30.625 30.5469 30.1004 30.5469 29.4531C30.5469 28.8058 30.0223 28.2812 29.375 28.2812H28.2031V25.9375H29.375C30.0223 25.9375 30.5469 25.4129 30.5469 24.7656C30.5469 24.1183 30.0223 23.5938 29.375 23.5938H28.2031V21.1719H29.375C30.0223 21.1719 30.5469 20.6473 30.5469 20C30.5469 19.3527 30.0223 18.8281 29.375 18.8281H28.2031V16.4844H29.375C30.0223 16.4844 30.5469 15.9598 30.5469 15.3125C30.5469 14.6652 30.0223 14.1406 29.375 14.1406H28.2031V12.9779C28.2031 12.9749 28.2037 12.9718 28.2037 12.9688C28.2037 12.9657 28.2031 12.9626 28.2031 12.9596V11.7969H29.375C30.0223 11.7969 30.5469 11.2723 30.5469 10.625C30.5469 9.97772 30.0223 9.45312 29.375 9.45312H28.2031V7.03125H29.375C30.0223 7.03125 30.5469 6.50665 30.5469 5.85938C30.5469 5.2121 30.0223 4.6875 29.375 4.6875H28.2031V2.34375H32.8906ZM18.8281 25.9375H16.4844C16.4844 24.9951 16.4844 7.51709 16.4844 7.03125H18.8281V25.9375ZM18.374 28.2812L17.6562 30.4349L16.9385 28.2812H18.374ZM17.6562 2.34375C18.3023 2.34375 18.8281 2.86957 18.8281 3.51562V4.6875H16.4844V3.51562C16.4844 2.86957 17.0102 2.34375 17.6562 2.34375ZM4.6875 9.45312C5.97992 9.45312 7.03125 10.5045 7.03125 11.7969V31.2555C6.34125 30.8554 5.54108 30.625 4.6875 30.625C3.83392 30.625 3.03375 30.8554 2.34375 31.2555V11.7969C2.34375 10.5045 3.39508 9.45312 4.6875 9.45312ZM37.6562 37.6562H4.6875C3.39508 37.6562 2.34375 36.6049 2.34375 35.3125C2.34375 34.0201 3.39508 32.9688 4.6875 32.9688C5.97992 32.9688 7.03125 34.0201 7.03125 35.3125C7.03125 35.9598 7.55585 36.4844 8.20312 36.4844C8.8504 36.4844 9.375 35.9598 9.375 35.3125V14.1406H14.1406V27.1094C14.1406 27.2336 14.1647 27.3718 14.2007 27.4799L16.5445 34.5111C16.7041 34.9896 17.1518 35.3125 17.6562 35.3125C18.1607 35.3125 18.6084 34.9896 18.768 34.5111L21.1118 27.4799C21.1127 27.4771 21.1133 27.4744 21.1142 27.4713C21.1493 27.363 21.1719 27.2311 21.1719 27.1094V14.1406H25.8594V34.1406C25.8594 34.7879 26.384 35.3125 27.0312 35.3125H34.0625C34.7098 35.3125 35.2344 34.7879 35.2344 34.1406V14.1406H37.6562V37.6562Z" fill="#F3F1EF"/>
</svg>
